assets/images/ac3.svg

<svg width="31" height="31" viewBox="0 0 31 31" fill="none" xmlns="http://www.w3.org/2000/svg">
<rect width="31" height="31" rx="15.5" fill="#EF3124"/>
<path d="M8.58105 22.6987C8.58105 23.2853 9.05653 23.7607 9.64307 23.7607H10.0859C10.4279 23.7607 10.7051 24.0379 10.7051 24.3799C10.7051 24.7218 10.4279 24.999 10.0859 24.999H8.58152C7.89738 24.999 7.34277 24.4444 7.34277 23.7603V21.417C7.34277 21.0751 7.61997 20.7979 7.96191 20.7979C8.30386 20.7979 8.58105 21.0751 8.58105 21.417V22.6987ZM24.0137 23.4019C24.0137 24.086 23.4591 24.6406 22.7749 24.6406H20.584C20.242 24.6406 19.9648 24.3634 19.9648 24.0215C19.9648 23.6795 20.242 23.4023 20.584 23.4023H21.6523C22.2726 23.4023 22.7754 22.8995 22.7754 22.2793V21.7754C22.7754 21.4334 23.0526 21.1562 23.3945 21.1562C23.7365 21.1562 24.0137 21.4334 24.0137 21.7754V23.4019ZM15.0967 21.6123C15.0967 21.9542 14.8195 22.2314 14.4775 22.2314C14.1356 22.2314 13.8584 21.9542 13.8584 21.6123V21.4663C13.8584 21.0437 13.5158 20.7012 13.0933 20.7012H11.7466C11.324 20.7012 10.9814 21.0437 10.9814 21.4663V21.6123C10.9814 21.9542 10.7042 22.2314 10.3623 22.2314C10.0204 22.2314 9.74316 21.9542 9.74316 21.6123V20.7016C9.74316 20.0175 10.2978 19.4629 10.9819 19.4629H13.8579C14.5421 19.4629 15.0967 20.0175 15.0967 20.7016V21.6123ZM20.6514 20.9927C20.6514 21.6768 20.0968 22.2314 19.4126 22.2314H17.7749C17.0907 22.2314 16.5361 21.6768 16.5361 20.9927V17.9326H19.4126C20.0968 17.9326 20.6514 18.4872 20.6514 19.1714V20.9927ZM17.7744 20.1729C17.7744 20.6254 18.1412 20.9922 18.5938 20.9922C19.0463 20.9922 19.4131 20.6254 19.4131 20.1729V19.9902C19.4131 19.5377 19.0463 19.1709 18.5938 19.1709C18.1412 19.1709 17.7744 19.5377 17.7744 19.9902V20.1729ZM16.5361 17.9326H10.9155C10.2314 17.9326 9.67676 17.378 9.67676 16.6939V12.0073C9.67676 11.3232 10.2314 10.7686 10.9155 10.7686H15.2974C15.9815 10.7686 16.5361 11.3232 16.5361 12.0073V17.9326ZM10.915 15.4546C10.915 16.1388 11.4696 16.6934 12.1538 16.6934H14.0581C14.7423 16.6934 15.2969 16.1388 15.2969 15.4546V13.2456C15.2969 12.5614 14.7423 12.0068 14.0581 12.0068H12.1538C11.4696 12.0068 10.915 12.5614 10.915 13.2456V15.4546ZM20.585 14.4478C20.585 15.1319 20.0304 15.6865 19.3462 15.6865H18.5273C18.1854 15.6865 17.9082 15.4093 17.9082 15.0674C17.9082 14.7254 18.1854 14.4482 18.5273 14.4482H18.6274C19.0247 14.4482 19.3467 14.1262 19.3467 13.729V12.8237C19.3467 12.4265 19.0247 12.1045 18.6274 12.1045H18.5273C18.1854 12.1045 17.9082 11.8273 17.9082 11.4854C17.9082 11.1434 18.1854 10.8662 18.5273 10.8662H19.3462C20.0304 10.8662 20.585 11.4208 20.585 12.105V14.4478ZM13.792 14.3809C13.792 14.7595 13.4851 15.0664 13.1064 15.0664C12.7278 15.0664 12.4209 14.7595 12.4209 14.3809V14.3193C12.4209 13.9407 12.7278 13.6338 13.1064 13.6338C13.4851 13.6338 13.792 13.9407 13.792 14.3193V14.3809ZM23.6709 11.582C23.6709 11.924 23.3937 12.2012 23.0518 12.2012C22.7098 12.2012 22.4326 11.924 22.4326 11.582V10.3003C22.4326 9.71376 21.9571 9.23828 21.3706 9.23828H20.9277C20.5858 9.23828 20.3086 8.96108 20.3086 8.61914C20.3086 8.2772 20.5858 8 20.9277 8H22.4321C23.1163 8 23.6709 8.55461 23.6709 9.23875V11.582ZM11.0488 8.61914C11.0488 8.96108 10.7716 9.23828 10.4297 9.23828H9.36133C8.74109 9.23828 8.23828 9.74109 8.23828 10.3613V10.8652C8.23828 11.2072 7.96108 11.4844 7.61914 11.4844C7.2772 11.4844 7 11.2072 7 10.8652V9.23875C7 8.55461 7.55461 8 8.23875 8H10.4297C10.7716 8 11.0488 8.2772 11.0488 8.61914Z" fill="#EFEFF4"/>
</svg>

<svg xmlns="http://www.w3.org/2000/svg" width="31" height="31" fill="none"><rect width="31" height="31" fill="#EF3124" rx="15.5"/><path fill="#EFEFF4" d="M8.581 22.699c0 .586.476 1.062 1.062 1.062h.443a.62.62 0 1 1 0 1.238H8.582a1.24 1.24 0 0 1-1.24-1.239v-2.343a.62.62 0 0 1 1.239 0zm15.433.703c0 .684-.555 1.239-1.24 1.239h-2.19a.62.62 0 1 1 0-1.239h1.068c.62 0 1.123-.503 1.123-1.123v-.504a.62.62 0 1 1 1.239 0zm-8.917-1.79a.62.62 0 0 1-1.239 0v-.146a.765.765 0 0 0-.765-.765h-1.346a.765.765 0 0 0-.766.765v.146a.62.62 0 0 1-1.238 0v-.91c0-.685.555-1.24 1.239-1.24h2.876c.684 0 1.239.555 1.239 1.24zm5.554-.62c0 .685-.554 1.24-1.238 1.24h-1.638a1.24 1.24 0 0 1-1.239-1.24v-3.06h2.877c.684 0 1.238.555 1.238 1.24zm-2.877-.82a.82.82 0 0 0 1.64 0v-.182a.82.82 0 1 0-1.64 0zm-1.238-2.24h-5.62a1.24 1.24 0 0 1-1.24-1.238v-4.687c0-.684.555-1.238 1.24-1.238h4.381c.684 0 1.24.554 1.24 1.238zm-5.621-2.477c0 .684.555 1.238 1.239 1.238h1.904c.684 0 1.239-.554 1.239-1.238v-2.21c0-.684-.555-1.238-1.239-1.238h-1.904c-.684 0-1.239.554-1.239 1.239zm9.67-1.007c0 .684-.555 1.239-1.239 1.239h-.819a.62.62 0 0 1 0-1.239h.1a.72.72 0 0 0 .72-.719v-.905a.72.72 0 0 0-.72-.72h-.1a.62.62 0 0 1 0-1.238h.82c.683 0 1.238.555 1.238 1.239zm-6.793-.067a.686.686 0 0 1-1.371 0v-.062a.685.685 0 1 1 1.371 0zm9.879-2.799a.62.62 0 1 1-1.238 0V10.3c0-.586-.476-1.062-1.062-1.062h-.443a.62.62 0 0 1 0-1.238h1.504c.684 0 1.239.555 1.239 1.239zM11.049 8.619a.62.62 0 0 1-.62.62H9.362c-.62 0-1.123.502-1.123 1.122v.504a.62.62 0 1 1-1.238 0V9.24C7 8.555 7.555 8 8.239 8h2.19a.62.62 0 0 1 .62.62"/></svg>
